lib/healthicons/icons/outline/typography/V.svg

<svg fill="none" height="48" viewBox="0 0 48 48" width="48" xmlns="http://www.w3.org/2000/svg"><path clip-rule="evenodd" d="m21.2306 37.1538c.4658 1.118 1.5581 1.8462 2.7692 1.8462s2.3034-.7282 2.7692-1.8462l10-24c.6373-1.5294-.0859-3.28578-1.6153-3.92303s-3.2859.08598-3.9231 1.61543l-7.2308 17.3538-7.2308-17.3538c-.6372-1.52945-2.3936-2.25268-3.923-1.61543s-2.2527 2.39363-1.6154 3.92303zm2.7692-.1538c-.4037 0-.7678-.2427-.9231-.6154l-10-24c-.2124-.5098.0287-1.0953.5385-1.3077s1.0953.0287 1.3077.5385l8.1538 19.5692c.1553.3727.5194.6154.9231.6154s.7678-.2427.9231-.6154l8.1538-19.5692c.2124-.5098.7979-.7509 1.3077-.5385s.7509.7979.5385 1.3077l-10 24c-.1553.3727-.5194.6154-.9231.6154z" fill="#333" fill-rule="evenodd"/></svg>

<svg width="48" height="48" viewBox="0 0 48 48" fill="none" xmlns="http://www.w3.org/2000/svg">
<path fill-rule="evenodd" clip-rule="evenodd" d="M21.2308 37.1538C21.6966 38.2718 22.7889 39 24.0001 39C25.2112 39 26.3035 38.2718 26.7693 37.1538L36.7693 13.1538C37.4065 11.6244 36.6833 9.86802 35.1539 9.23077C33.6245 8.59352 31.8681 9.31675 31.2308 10.8462L24.0001 28.2L16.7693 10.8462C16.132 9.31675 14.3756 8.59352 12.8462 9.23077C11.3168 9.86802 10.5936 11.6244 11.2308 13.1538L21.2308 37.1538ZM24.0001 37C23.5963 37 23.2322 36.7573 23.077 36.3846L13.077 12.3846C12.8646 11.8748 13.1056 11.2893 13.6154 11.0769C14.1252 10.8645 14.7107 11.1056 14.9231 11.6154L23.077 31.1846C23.2322 31.5573 23.5963 31.8 24.0001 31.8C24.4038 31.8 24.7679 31.5573 24.9231 31.1846L33.077 11.6154C33.2894 11.1056 33.8749 10.8645 34.3847 11.0769C34.8945 11.2893 35.1355 11.8748 34.9231 12.3846L24.9231 36.3846C24.7679 36.7573 24.4038 37 24.0001 37Z" fill="#333333"/>
</svg>
